X:1082
M:C
L:1/8
Q:1/2=60
K:D
d>d|a3  g f2 e2 |d2 d>d d2 A>A|d3 f  e3   g|f>ga>f e2f2 |
    g2e>g f2 d>f|e>de>f d>ef>g|agfg  f2Te2 |d2 d>d d2  :|
    a2f>a g2 e>g|fdaf   e2 f>g|agfg  f2 e2 |d2 d>d d2  :|

